nalufx-ui/ui/assets/arrow-right.svg

<svg fill="none" height="24" viewBox="0 0 24 24" width="24" xmlns="http://www.w3.org/2000/svg"><path d="m12 20-1.425-1.4 5.6-5.6h-12.175v-2h12.175l-5.6-5.6 1.425-1.4 8 8z" fill="#fff"/></svg>

<svg width="24" height="24" viewBox="0 0 24 24" fill="none" xmlns="http://www.w3.org/2000/svg">
<path d="M12 20L10.575 18.6L16.175 13H4V11H16.175L10.575 5.4L12 4L20 12L12 20Z" fill="white"/>
</svg>
